X: 36830
T: Shincliffe, The
R: hornpipe
M: 4/4
K: Dmajor
|:de|fedB AFAB|defg a2 fa|g2 eg f2 df|edcB A2 FA|
BAGA BcdB|cBAB cdec|dcde fefg|addc d2:|
|:de|fgab agfe|dAFA d2 ef|gaba gfed|cBcd e2 de|
fgag fedB|AFAd f2 ef|gaba gfed|cABc d2:|

